X:1
T:Långdans i A 
C:Ola Olsson
O:Skarup, Blekinge
R:Långdans
M:2/4
L:1/16
Z:Andy Davey 2018
K:A
Q:1/4=90
c2cd e2ce | d2Bd c2A2 | c2cd e2ce | edBG A4 :| 
|: aaaa a2ce | d2Bd c2A2 | aaaa a2ce | edBG A4 :|

